dist/images/icons/icon-delivery.svg

<svg width="34" height="34" viewBox="0 0 34 34" fill="none" xmlns="http://www.w3.org/2000/svg">
<path d="M6.51764 24.4691L6.92524 25.4395C7.21274 25.3215 7.51216 25.2343 7.8184 25.1793L7.62842 24.1455C7.24757 24.214 6.8752 24.3224 6.51764 24.4691V24.4691Z" fill="black"/>
<path d="M3.72681 27.0755L4.68306 27.5332C5.014 26.8585 5.51742 26.2808 6.14353 25.8573L5.54388 24.9904C4.76488 25.5172 4.13854 26.2359 3.72681 27.0755V27.0755Z" fill="black"/>
<path d="M32.9375 26.7798C32.9381 25.8755 32.6008 25.0028 31.9904 24.3293L31.1987 25.0296C31.5128 25.376 31.7279 25.7989 31.8219 26.2547H28.1562C28.0688 26.2547 27.9827 26.276 27.9056 26.3168C27.8285 26.3576 27.7628 26.4166 27.7142 26.4885L25.747 29.4052H24.4375V27.8299C24.4386 26.8555 24.8308 25.9212 25.5279 25.2321C26.2251 24.5431 27.1703 24.1555 28.1562 24.1544H29.2188C29.7412 24.1535 30.2521 24.3056 30.6871 24.5916L31.2755 23.7171C30.8167 23.4153 30.2955 23.2187 29.75 23.1417V21.5289C29.75 21.3897 29.694 21.2561 29.5944 21.1577C29.4948 21.0592 29.3596 21.0039 29.2188 21.0039C28.6554 21.0032 28.1152 20.7818 27.7168 20.388C27.3185 19.9942 27.0944 19.4604 27.0938 18.9035V16.8032H28.6875C28.8284 16.8032 28.9635 16.7479 29.0632 16.6494C29.1628 16.5509 29.2188 16.4174 29.2188 16.2781V12.6025C29.2188 12.4633 29.1628 12.3297 29.0632 12.2313C28.9635 12.1328 28.8284 12.0775 28.6875 12.0775H27.7505C27.5285 12.0778 27.3076 12.1079 27.0938 12.1669V11.5524C27.0938 11.4331 27.0527 11.3173 26.9773 11.2242L25.2392 9.07661C25.4669 8.69699 25.5488 8.24905 25.4699 7.81467C25.391 7.38029 25.1566 6.98847 24.8095 6.71083C24.4624 6.43318 24.0259 6.28825 23.5796 6.30253C23.1333 6.31681 22.7071 6.48935 22.379 6.7886C22.0508 7.08785 21.8425 7.49383 21.7922 7.93235C21.7419 8.37086 21.853 8.81263 22.105 9.17689C22.3571 9.54116 22.7334 9.80361 23.1651 9.91627C23.5968 10.0289 24.0551 9.98427 24.4563 9.79046L26.0312 11.7365V12.3991L23.6957 11.6296C23.5427 11.5775 23.3819 11.5514 23.2201 11.5524H18.8381L16.316 8.64401C16.527 8.49911 16.6994 8.3059 16.8185 8.08087C16.9377 7.85584 16.9999 7.60567 17 7.35171V7.15113L17.7689 6.77117C17.8362 6.73787 17.8957 6.69079 17.9432 6.63305C17.9908 6.57531 18.0254 6.50824 18.0447 6.43628C18.064 6.36432 18.0677 6.28912 18.0553 6.21567C18.043 6.14222 18.015 6.0722 17.9733 6.01026L17.1007 4.71659C17.2218 4.69347 17.3311 4.6294 17.4096 4.53536C17.4882 4.44132 17.5312 4.32318 17.5312 4.20122C17.5303 3.36595 17.1941 2.56516 16.5966 1.97453C15.999 1.38391 15.1888 1.05168 14.3438 1.05072C13.3433 1.05072 12.417 1.33472 11.728 2.08723C11.4295 2.41379 11.2034 2.79844 11.0641 3.21648C10.9249 3.63453 10.8757 4.07673 10.9196 4.51469L11.0333 5.63784C11.0812 6.1221 11.3153 6.56971 11.6875 6.8882V16.8032C11.6872 17.1721 11.7859 17.5344 11.9734 17.8534H11.1562C10.9753 17.8533 10.7956 17.8838 10.625 17.9437V11.0273C10.6245 10.6097 10.4565 10.2093 10.1577 9.91394C9.85889 9.61863 9.45379 9.45251 9.03125 9.45204H2.65625C2.23371 9.45251 1.82861 9.61863 1.52982 9.91394C1.23104 10.2093 1.06297 10.6097 1.0625 11.0273V13.6527H2.125V12.6025H9.5625V17.8534H2.125V14.7029H1.0625V18.9904C1.06238 19.2363 1.14967 19.4745 1.30913 19.6634C1.46858 19.8522 1.69008 19.9797 1.93495 20.0236L6.90625 20.917V22.1492C6.45584 22.2523 6.01601 22.3962 5.59234 22.5791H2.65625C2.51535 22.5791 2.38023 22.6344 2.2806 22.7329C2.18097 22.8314 2.125 22.9649 2.125 23.1042V25.5965C1.43087 26.7486 1.06382 28.0643 1.0625 29.4052C1.0625 29.5445 1.11847 29.678 1.2181 29.7765C1.31773 29.875 1.45285 29.9303 1.59375 29.9303H4.02893C4.34641 30.7059 4.89103 31.3702 5.59297 31.838C6.29491 32.3057 7.12219 32.5556 7.96875 32.5556C8.81531 32.5556 9.64259 32.3057 10.3445 31.838C11.0465 31.3702 11.5911 30.7059 11.9086 29.9303H20.8409C21.211 29.9301 21.577 29.8535 21.9154 29.7056C22.2539 29.5577 22.5574 29.3416 22.8066 29.0711L23.375 28.4529V29.9303C23.375 30.0695 23.431 30.2031 23.5306 30.3016C23.6302 30.4 23.7654 30.4554 23.9062 30.4554H25.007C25.4748 31.2561 26.1969 31.882 27.0612 32.2358C27.9255 32.5896 28.8838 32.6517 29.7875 32.4124C30.6912 32.173 31.4897 31.6457 32.0592 30.9121C32.6287 30.1785 32.9375 29.2797 32.9375 28.355C32.9379 27.9529 32.8796 27.5527 32.7644 27.167C32.819 27.118 32.8626 27.0582 32.8924 26.9915C32.9222 26.9248 32.9375 26.8527 32.9375 26.7798ZM22.8438 8.13934C22.8438 7.98356 22.8905 7.83128 22.978 7.70176C23.0656 7.57223 23.1901 7.47128 23.3357 7.41167C23.4813 7.35205 23.6415 7.33646 23.7961 7.36685C23.9507 7.39724 24.0927 7.47225 24.2041 7.5824C24.3155 7.69255 24.3914 7.8329 24.4222 7.98568C24.4529 8.13846 24.4372 8.29683 24.3768 8.44075C24.3165 8.58467 24.2144 8.70768 24.0833 8.79422C23.9523 8.88077 23.7982 8.92696 23.6406 8.92696C23.4294 8.92674 23.2268 8.84368 23.0774 8.69602C22.928 8.54836 22.844 8.34816 22.8438 8.13934V8.13934ZM15.2436 26.7798C14.7233 26.7792 14.2245 26.5746 13.8566 26.211C13.4888 25.8474 13.2818 25.3544 13.2812 24.8402C13.2813 24.3247 13.4131 23.8425 13.7607 23.4459C14.0705 23.0934 14.4982 22.8627 14.9658 22.7961C15.5302 22.7165 16.0467 22.4383 16.4204 22.0126C16.794 21.5869 16.9998 21.0423 17 20.4788C17.0001 20.4098 16.9864 20.3414 16.9597 20.2777C16.9329 20.214 16.8937 20.1561 16.8443 20.1074C16.9346 19.9207 16.9867 19.7183 16.9978 19.5118C17.0088 19.3052 16.9785 19.0985 16.9086 18.9035H18.3515L16.0202 24.8943C15.9639 25.0386 15.9358 25.1921 15.9375 25.3468V26.7798H15.2436ZM17 25.7296H19.6562C19.7702 25.7297 19.8811 25.766 19.9725 25.8332C20.064 25.9003 20.1312 25.9947 20.1642 26.1025C20.1972 26.2103 20.1943 26.3257 20.1559 26.4317C20.1175 26.5377 20.0456 26.6287 19.9509 26.6913C19.8174 26.7492 19.6732 26.7793 19.5274 26.7798H17V25.7296ZM21.1226 25.6377C21.017 25.3934 20.8507 25.1794 20.6391 25.0154C20.4275 24.8515 20.1776 24.7429 19.9123 24.6998L22.1124 19.4645C22.3079 18.9992 22.3843 18.4935 22.3347 17.992C22.285 17.4906 22.111 17.009 21.828 16.59C21.545 16.1709 21.1618 15.8274 20.7123 15.5898C20.2628 15.3522 19.7609 15.2279 19.2512 15.228H17V14.3953L17.1556 14.5491C17.2049 14.5978 17.2635 14.6365 17.3279 14.6629C17.3924 14.6893 17.4615 14.7029 17.5312 14.7029H22.9351C22.85 14.9405 22.8238 15.1947 22.8588 15.4444C22.8938 15.6941 22.9888 15.9318 23.1361 16.1376C23.2833 16.3433 23.4783 16.5112 23.7048 16.627C23.9312 16.7429 24.1825 16.8033 24.4375 16.8032H24.439C24.0927 17.257 23.9056 17.8101 23.9062 18.3785V22.4518C23.9054 22.7301 23.7936 22.997 23.595 23.1943L21.1226 25.6377ZM24.4375 15.753C24.3324 15.753 24.2297 15.7222 24.1424 15.6645C24.055 15.6068 23.9869 15.5248 23.9467 15.4289C23.9065 15.3329 23.896 15.2274 23.9165 15.1255C23.937 15.0237 23.9876 14.9301 24.0618 14.8567C24.1361 14.7832 24.2308 14.7332 24.3339 14.713C24.4369 14.6927 24.5437 14.7031 24.6408 14.7428C24.7379 14.7826 24.8208 14.8499 24.8792 14.9362C24.9376 15.0226 24.9688 15.1241 24.9688 15.228C24.9686 15.3672 24.9126 15.5006 24.813 15.5991C24.7134 15.6975 24.5783 15.7529 24.4375 15.753V15.753ZM28.1562 13.1276V15.753H27.0938V13.2911C27.2958 13.1842 27.5213 13.128 27.7505 13.1276H28.1562ZM26.0312 15.228C26.0313 14.9759 25.9702 14.7276 25.853 14.5037C25.7358 14.2799 25.566 14.0871 25.3578 13.9416C25.1496 13.7961 24.9091 13.7021 24.6565 13.6676C24.4039 13.633 24.1466 13.6589 23.9062 13.743V12.806L26.0312 13.5061V15.228ZM18.5938 12.6025H22.8438V13.6527H17.7513L14.7194 10.656L13.9681 11.3986L15.9375 13.3451V15.228H12.75V8.92696H15.1619L18.1904 12.4192C18.2403 12.4767 18.3021 12.5229 18.3718 12.5545C18.4414 12.5862 18.5171 12.6025 18.5938 12.6025V12.6025ZM12.5158 2.79189C13.0014 2.2615 13.6459 2.10089 14.3438 2.10089C14.8147 2.10148 15.2722 2.25643 15.6446 2.54147C16.0169 2.82652 16.2832 3.22556 16.4015 3.67613H14.3438C14.2029 3.67613 14.0677 3.73146 13.9681 3.82993C13.8685 3.9284 13.8125 4.06196 13.8125 4.20122V5.44829C13.8117 5.66666 13.7262 5.87643 13.5737 6.03439C13.4211 6.19235 13.2131 6.28649 12.9925 6.29743C12.7718 6.30836 12.5553 6.23526 12.3875 6.09317C12.2197 5.95108 12.1135 5.75082 12.0906 5.53361L11.9769 4.41046C11.9458 4.11835 11.9777 3.82303 12.0706 3.54402C12.1635 3.26501 12.3152 3.00865 12.5158 2.79189V2.79189ZM12.9492 7.35171C13.4598 7.35119 13.9493 7.15049 14.3104 6.79364C14.6714 6.43679 14.8745 5.95295 14.875 5.44829V4.7263H15.9375C15.9375 4.82998 15.9685 4.93134 16.0267 5.01759L16.7554 6.09808L16.2308 6.35721C16.1427 6.40085 16.0686 6.46787 16.0168 6.55077C15.9649 6.63368 15.9375 6.72919 15.9375 6.82663V7.35171C15.9373 7.49093 15.8813 7.62439 15.7817 7.72283C15.6821 7.82127 15.5471 7.87664 15.4062 7.8768H12.75V7.34141C12.8162 7.34819 12.8827 7.35162 12.9492 7.35171ZM12.75 16.8032V16.2781H19.2512C19.5861 16.2781 19.9159 16.3598 20.2112 16.516C20.5065 16.6721 20.7584 16.8978 20.9443 17.1732C21.1302 17.4485 21.2446 17.765 21.2771 18.0944C21.3097 18.4239 21.2595 18.7563 21.1311 19.062L18.7704 24.6794H17.2423L19.6209 18.567C19.6518 18.4874 19.6627 18.4016 19.6526 18.317C19.6425 18.2324 19.6117 18.1514 19.5629 18.0812C19.5141 18.0109 19.4487 17.9535 19.3724 17.9138C19.2961 17.8741 19.2112 17.8534 19.125 17.8534H13.8125C13.5308 17.853 13.2608 17.7423 13.0616 17.5454C12.8624 17.3485 12.7503 17.0816 12.75 16.8032ZM11.1562 18.9035H15.4062C15.5471 18.9035 15.6823 18.9589 15.7819 19.0573C15.8815 19.1558 15.9375 19.2894 15.9375 19.4286C15.9375 19.5679 15.8815 19.7014 15.7819 19.7999C15.6823 19.8984 15.5471 19.9537 15.4062 19.9537H11.1562C11.0154 19.9537 10.8802 19.8984 10.7806 19.7999C10.681 19.7014 10.625 19.5679 10.625 19.4286C10.625 19.2894 10.681 19.1558 10.7806 19.0573C10.8802 18.9589 11.0154 18.9035 11.1562 18.9035ZM2.125 11.5524V11.0273C2.12516 10.8881 2.18118 10.7546 2.28077 10.6562C2.38037 10.5577 2.5154 10.5024 2.65625 10.5022H9.03125C9.1721 10.5024 9.30713 10.5577 9.40673 10.6562C9.50632 10.7546 9.56234 10.8881 9.5625 11.0273V11.5524H2.125ZM2.125 18.9035H9.5625V19.9537H7.48538L2.125 18.9904V18.9035ZM3.84426 23.6293C3.61366 23.8143 3.39435 24.0127 3.1875 24.2234V23.6293H3.84426ZM7.96875 31.5055C7.40983 31.5031 6.86124 31.3564 6.37723 31.0802C5.89322 30.8039 5.49055 30.4075 5.20904 29.9303H6.56452C6.9522 30.2686 7.45157 30.4554 7.96875 30.4554C8.48593 30.4554 8.9853 30.2686 9.37298 29.9303H10.7285C10.447 30.4075 10.0443 30.8039 9.56027 31.0802C9.07626 31.3564 8.52767 31.5031 7.96875 31.5055V31.5055ZM22.0203 28.3649C21.8708 28.5271 21.6887 28.6567 21.4856 28.7454C21.2825 28.8342 21.063 28.88 20.8409 28.8801H2.14698C2.26123 27.5093 2.81959 26.2113 3.7392 25.179C4.6588 24.1466 5.89066 23.4347 7.25196 23.1491C7.38929 23.1196 7.52939 23.1045 7.66992 23.1042H11.1562V22.054H7.96875V21.0039H15.8246C15.7346 21.2035 15.5948 21.3774 15.4182 21.5091C15.2417 21.6408 15.0342 21.726 14.8152 21.7568C14.0946 21.8593 13.4353 22.2146 12.9579 22.7579C12.4438 23.343 12.2188 24.0749 12.2188 24.8403C12.2183 25.5517 12.4757 26.2398 12.9444 26.7798H8.5V27.8299H19.5274C20.0902 27.8258 20.6292 27.6052 21.03 27.2147L24.3463 23.9369C24.7435 23.5421 24.9671 23.0085 24.9688 22.4518V18.3785C24.9691 18.0528 25.0715 17.7352 25.2617 17.4693C25.4519 17.2034 25.7207 17.0021 26.0312 16.8932V18.9035C26.0322 19.6478 26.2993 20.3678 26.7854 20.9363C27.2714 21.5048 27.9452 21.8852 28.6875 22.0103V23.1042C28.3577 23.1042 28.0202 23.0845 27.6923 23.1268C26.6985 23.2243 25.7603 23.6262 25.0089 24.2764C24.2576 24.9267 23.7306 25.7927 23.5016 26.7535L22.0203 28.3649ZM28.4405 27.3049H28.4675L29.1087 27.9387C29.2202 28.0493 29.2829 28.1989 29.2832 28.355C29.2832 28.4715 29.2482 28.5853 29.1828 28.6821C29.1173 28.779 29.0243 28.8544 28.9155 28.899C28.8066 28.9436 28.6868 28.9552 28.5713 28.9325C28.4557 28.9098 28.3496 28.8537 28.2663 28.7713L27.7773 28.2881L28.4405 27.3049ZM28.6875 31.5055C28.2272 31.5041 27.7726 31.4047 27.3546 31.214C26.9366 31.0234 26.5651 30.746 26.2653 30.4007C26.3494 30.3602 26.4212 30.2984 26.4733 30.2216L26.9338 29.539C27.1896 29.9098 27.5589 30.1898 27.9875 30.3379C28.4161 30.4861 28.8815 30.4945 29.3153 30.3621C29.7492 30.2297 30.1287 29.9633 30.3981 29.6021C30.6676 29.2409 30.8128 28.8038 30.8125 28.355C30.8133 28.0439 30.7432 27.7365 30.6074 27.4558C30.5826 27.4042 30.5553 27.3542 30.5266 27.3049H31.6934C31.863 27.7801 31.9148 28.2886 31.8446 28.7878C31.7743 29.2869 31.584 29.7621 31.2896 30.1735C30.9952 30.585 30.6052 30.9207 30.1525 31.1524C29.6997 31.3842 29.1974 31.5053 28.6875 31.5055V31.5055Z" fill="black"/>
<path d="M4.25 13.6522H3.1875V16.8027H4.25V13.6522Z" fill="black"/>
</svg>

<svg width="34" height="34" fill="none" xmlns="http://www.w3.org/2000/svg"><path d="M6.518 24.47l.407.97c.288-.119.587-.206.893-.26l-.19-1.035c-.38.069-.753.177-1.11.324zm-2.791 2.606l.956.457a4.323 4.323 0 011.46-1.676l-.6-.867a5.376 5.376 0 00-1.816 2.086z" fill="#000"/><path d="M32.938 26.78c0-.905-.337-1.777-.948-2.45l-.791.7c.314.346.529.769.623 1.225h-3.666a.536.536 0 00-.442.233l-1.967 2.917h-1.31V27.83a3.659 3.659 0 011.09-2.598 3.745 3.745 0 012.63-1.078h1.062c.522 0 1.033.152 1.468.438l.588-.875a3.723 3.723 0 00-1.525-.575v-1.613a.522.522 0 00-.156-.371.534.534 0 00-.375-.154 2.14 2.14 0 01-1.502-.616 2.09 2.09 0 01-.623-1.485v-2.1h1.593a.534.534 0 00.376-.154.522.522 0 00.156-.37v-3.677a.522.522 0 00-.156-.37.535.535 0 00-.375-.154h-.938c-.221 0-.442.03-.656.089v-.615a.521.521 0 00-.117-.328L25.24 9.077a1.82 1.82 0 00-.43-2.366 1.873 1.873 0 00-2.43.078 1.822 1.822 0 00-.274 2.388 1.86 1.86 0 001.06.74c.432.112.89.067 1.291-.127l1.575 1.947v.662l-2.335-.77a1.448 1.448 0 00-.476-.077h-4.382l-2.522-2.908A1.58 1.58 0 0017 7.352v-.2l.769-.38a.53.53 0 00.276-.336.518.518 0 00-.072-.426l-.872-1.293a.532.532 0 00.309-.182.52.52 0 00.121-.334c0-.835-.337-1.636-.934-2.226a3.21 3.21 0 00-2.253-.924c-1 0-1.927.284-2.616 1.036a3.123 3.123 0 00-.808 2.427l.113 1.124c.048.484.282.932.655 1.25v9.915c0 .37.098.731.285 1.05h-.817c-.18 0-.36.03-.531.09v-6.916c0-.417-.168-.818-.467-1.113a1.605 1.605 0 00-1.127-.462H2.656c-.422 0-.827.167-1.126.462a1.568 1.568 0 00-.468 1.113v2.626h1.063v-1.05h7.438v5.25H2.125v-3.15H1.062v4.287a1.056 1.056 0 00.873 1.033l4.971.894v1.232a7.59 7.59 0 00-1.314.43H2.656a.534.534 0 00-.375.154.522.522 0 00-.156.371v2.492a7.393 7.393 0 00-1.063 3.81c0 .139.056.272.156.37.1.099.235.154.376.154h2.435c.317.776.862 1.44 1.564 1.908a4.286 4.286 0 004.752 0 4.211 4.211 0 001.564-1.908h8.932a2.687 2.687 0 001.966-.859l.568-.618v1.477c0 .14.056.273.156.372.1.098.234.153.375.153h1.101a4.23 4.23 0 002.054 1.78 4.297 4.297 0 002.727.177 4.253 4.253 0 002.271-1.5 4.17 4.17 0 00.705-3.745.522.522 0 00.173-.387zM22.843 8.14a.782.782 0 01.492-.728.805.805 0 01.868.17.786.786 0 01.173.859.803.803 0 01-1.3.255.784.784 0 01-.233-.557zm-7.6 18.64c-.52 0-1.02-.205-1.387-.569a1.93 1.93 0 01-.576-1.37c0-.516.132-.998.48-1.395.31-.353.737-.583 1.205-.65a2.377 2.377 0 001.454-.783c.374-.426.58-.97.58-1.534a.518.518 0 00-.156-.372 1.56 1.56 0 00.065-1.203h1.443l-2.332 5.99a1.208 1.208 0 00-.082.453v1.433h-.694zM17 25.73h2.656a.535.535 0 01.508.372.52.52 0 01-.213.59 1.074 1.074 0 01-.424.088H17v-1.05zm4.123-.092a1.582 1.582 0 00-.484-.623 1.608 1.608 0 00-.727-.315l2.2-5.235a3.03 3.03 0 00-.284-2.875 3.085 3.085 0 00-1.116-1 3.126 3.126 0 00-1.46-.362H17v-.833l.156.154a.533.533 0 00.375.154h5.404a1.557 1.557 0 00.201 1.435 1.607 1.607 0 001.301.666h.002a2.592 2.592 0 00-.533 1.575v4.073c0 .278-.112.545-.311.742l-2.472 2.444zm3.314-9.885a.535.535 0 01-.49-.324.52.52 0 01.115-.572.532.532 0 01.579-.114.53.53 0 01.328.485c0 .14-.056.273-.156.371a.535.535 0 01-.375.154zm3.72-2.625v2.625h-1.063v-2.462a1.41 1.41 0 01.656-.163h.406zm-2.126 2.1a1.56 1.56 0 00-.673-1.286 1.603 1.603 0 00-1.452-.199v-.937l2.125.7v1.722zm-7.437-2.626h4.25v1.05H17.75l-3.032-2.996-.75.743 1.969 1.946v1.883H12.75V8.927h2.412l3.028 3.492a.53.53 0 00.404.183zm-6.078-9.81c.485-.53 1.13-.691 1.828-.691.47 0 .928.155 1.3.44.373.286.64.685.757 1.135h-2.057a.535.535 0 00-.376.154.522.522 0 00-.155.371v1.247a.848.848 0 01-.24.586.868.868 0 01-1.482-.5l-.114-1.124a2.054 2.054 0 01.539-1.618zm.433 4.56c.51 0 1-.202 1.361-.558.361-.357.564-.841.565-1.346v-.722h1.063a.52.52 0 00.089.292l.728 1.08-.524.26a.53.53 0 00-.294.469v.525a.52.52 0 01-.155.37.535.535 0 01-.376.155H12.75V7.34a1.9 1.9 0 00.2.01zm-.199 9.451v-.525h6.501c.335 0 .665.082.96.238.296.156.547.382.733.657a1.997 1.997 0 01.187 1.889l-2.36 5.617h-1.529l2.379-6.112a.52.52 0 00-.249-.653.536.536 0 00-.247-.06h-5.313a1.07 1.07 0 01-.75-.309 1.045 1.045 0 01-.312-.742zm-1.594 2.1h4.25c.141 0 .276.056.376.154a.522.522 0 01-.376.897h-4.25a.534.534 0 01-.375-.154.522.522 0 01.375-.896zm-9.031-7.35v-.526c0-.139.056-.272.156-.37a.535.535 0 01.375-.155h6.375c.141 0 .276.056.376.154a.52.52 0 01.155.371v.525H2.125zm0 7.35h7.438v1.05H7.485l-5.36-.963v-.086zm1.72 4.726c-.231.185-.45.384-.658.594v-.594h.657zm4.124 7.877a3.24 3.24 0 01-1.592-.426 3.194 3.194 0 01-1.168-1.15h1.356a2.136 2.136 0 002.808 0h1.356a3.193 3.193 0 01-1.169 1.15 3.24 3.24 0 01-1.591.426zm14.051-3.141a1.595 1.595 0 01-1.18.515H2.148a6.358 6.358 0 011.592-3.701 6.487 6.487 0 013.513-2.03 2.01 2.01 0 01.418-.045h3.486v-1.05H7.97v-1.05h7.856a1.314 1.314 0 01-1.01.753c-.72.102-1.38.458-1.857 1-.514.586-.74 1.318-.74 2.083 0 .712.258 1.4.726 1.94H8.5v1.05h11.027a2.176 2.176 0 001.503-.615l3.316-3.278a2.1 2.1 0 00.623-1.485v-4.074c0-.325.102-.643.293-.909.19-.266.459-.467.77-.576v2.01c0 .745.267 1.465.753 2.033.486.569 1.16.95 1.902 1.074v1.094c-.33 0-.667-.02-.995.023a4.82 4.82 0 00-2.683 1.15 4.727 4.727 0 00-1.507 2.476l-1.482 1.612zm6.42-1.06h.027l.642.634a.588.588 0 01.074.743.594.594 0 01-.612.25.597.597 0 01-.305-.16l-.489-.484.663-.983zm.247 4.2c-.46 0-.914-.1-1.332-.291a3.2 3.2 0 01-1.09-.813.528.528 0 00.208-.18l.46-.682a2.137 2.137 0 002.382.823 2.123 2.123 0 001.083-.76 2.083 2.083 0 00.129-2.297h1.166a3.118 3.118 0 01-.403 2.869 3.178 3.178 0 01-1.137.978 3.218 3.218 0 01-1.465.354z" fill="#000"/><path d="M4.25 13.652H3.187v3.15H4.25v-3.15z" fill="#000"/></svg>
